;FLAVOR:UltiGCode
;TIME:2426
;MATERIAL:7418
;MATERIAL2:0
;NOZZLE_DIAMETER:0.8
;Generated with Cura_SteamEngine 3.2.1
M82 ;absolute extrusion mode

;LAYER_COUNT:104
;LAYER:0
M107
G0 F5400 X100.527 Y79.625 Z0.53
;TYPE:SKIRT
G1 F1800 X100.692 Y79.435 E0.09336
G1 X101.014 Y79.113 E0.2623
G1 X101.304 Y78.878 E0.40079
G1 X101.638 Y78.711 E0.53933
G1 X102 Y78.618 E0.67799
G1 X102.251 Y78.6 E0.77135
G1 X103.293 Y78.6 E1.15793
G1 X103.454 Y78.415 E1.24892
G1 X103.754 Y78.192 E1.3876
G1 X104.094 Y78.037 E1.52623
G1 X104.644 Y77.949 E1.73287
G1 X107.139 Y77.95 E2.65852
G1 X107.51 Y77.99 E2.79696
G1 X107.865 Y78.108 E2.93575
G1 X108.186 Y78.299 E3.07433
G1 X108.46 Y78.553 E3.21294
G1 X108.489 Y78.6 E3.23343
G1 X109.369 Y78.601 E3.55991
G1 X109.741 Y78.641 E3.69872
G1 X110.095 Y78.759 E3.83715
G1 X110.416 Y78.95 E3.97573
G1 X110.69 Y79.204 E4.11435
G1 X110.903 Y79.511 E4.25297
G1 X111.002 Y79.749 E4.3486
G1 X111.027 Y79.708 E4.36642
G1 X111.192 Y79.518 E4.45978
G1 X111.397 Y79.313 E4.56734
G1 X111.687 Y79.078 E4.70582
G1 X112.021 Y78.911 E4.84436
G1 X112.383 Y78.818 E4.98302
G1 X112.634 Y78.8 E5.07638
G1 X127.185 Y78.8 E10.4748
G1 X127.556 Y78.84 E10.61324
G1 X127.911 Y78.958 E10.75203
G1 X128.233 Y79.148 E10.89074
G1 X128.422 Y79.313 E10.98382
G1 X128.627 Y79.518 E11.09138
G1 X128.862 Y79.808 E11.22986
G1 X129.029 Y80.142 E11.3684
G1 X129.122 Y80.504 E11.50706
G1 X129.14 Y80.755 E11.60042
G1 X129.141 Y97.106 E17.66664
G1 X129.35 Y96.96 E17.76123
G1 X129.695 Y96.817 E17.89978
G1 X130.063 Y96.75 E18.03855
G1 X130.436 Y96.762 E18.17701
G1 X130.848 Y96.873 E18.33531
G1 X132.11 Y97.384 E18.84044
G1 X132.439 Y97.56 E18.97887
G1 X132.724 Y97.803 E19.11782
G1 X132.95 Y98.1 E19.25628
G1 X133.108 Y98.438 E19.3947
G1 X133.203 Y98.978 E19.59812
G1 X133.25 Y101.922 E20.69048
G1 X133.216 Y102.294 E20.82907
G1 X133.104 Y102.651 E20.96788
G1 X132.918 Y102.975 E21.10648
G1 X132.668 Y103.253 E21.24519
G1 X132.365 Y103.471 E21.38367
G1 X132.18 Y103.562 E21.46016
G1 X130.871 Y104.114 E21.98722
G1 X130.513 Y104.222 E22.12595
G1 X130.141 Y104.251 E22.26438
G1 X129.77 Y104.201 E22.40326
G1 X129.419 Y104.073 E22.54187
G1 X129.141 Y103.896 E22.66414
G1 X129.141 Y113.245 E26.13262
G1 X129.101 Y113.616 E26.27106
G1 X128.983 Y113.971 E26.40985
G1 X128.793 Y114.292 E26.54824
G1 X128.628 Y114.482 E26.6416
G1 X128.423 Y114.687 E26.74916
G1 X128.133 Y114.922 E26.88764
G1 X127.799 Y115.089 E27.02618
G1 X127.437 Y115.182 E27.16484
G1 X127.186 Y115.2 E27.2582
G1 X126.165 Y115.2 E27.63699
G1 X125.794 Y115.16 E27.77543
G1 X125.439 Y115.042 E27.91422
G1 X125.117 Y114.852 E28.05293
G1 X124.928 Y114.687 E28.14601
G1 X124.723 Y114.482 E28.25357
G1 X124.488 Y114.192 E28.39205
G1 X124.321 Y113.858 E28.53059
G1 X124.228 Y113.496 E28.66925
G1 X124.21 Y113.245 E28.76261
G1 X124.21 Y105.89 E31.49132
G1 X124.156 Y105.259 E31.72627
G1 X124.017 Y104.719 E31.93314
G1 X123.796 Y104.226 E32.13358
G1 X123.484 Y103.757 E32.34257
G1 X123.107 Y103.36 E32.54568
G1 X122.665 Y103.027 E32.75099
G1 X122.167 Y102.768 E32.95925
G1 X121.647 Y102.604 E33.16153
G1 X121.088 Y102.525 E33.37098
G1 X120.541 Y102.54 E33.574
G1 X119.997 Y102.649 E33.77983
G1 X119.477 Y102.847 E33.98626
G1 X119.007 Y103.124 E34.18866
G1 X118.524 Y103.531 E34.42299
G1 X108.455 Y113.601 E39.70619
G1 X124.21 Y130.715 E48.3363
G1 X124.21 Y117.755 E53.14446
G1 X124.25 Y117.384 E53.2829
G1 X124.368 Y117.029 E53.42169
G1 X124.558 Y116.707 E53.5604
G1 X124.723 Y116.518 E53.65348
G1 X124.928 Y116.313 E53.76104
G1 X125.218 Y116.078 E53.89952
G1 X125.552 Y115.911 E54.03806
G1 X125.914 Y115.818 E54.17672
G1 X126.165 Y115.8 E54.27008
G1 X127.185 Y115.8 E54.6485
G1 X127.556 Y115.84 E54.78694
G1 X127.911 Y115.958 E54.92573
G1 X128.233 Y116.148 E55.06444
G1 X128.422 Y116.313 E55.15752
G1 X128.627 Y116.518 E55.26507
G1 X128.862 Y116.808 E55.40356
G1 X129.029 Y117.142 E55.5421
G1 X129.122 Y117.504 E55.68076
G1 X129.14 Y117.755 E55.77412
G1 X129.141 Y142.245 E64.85991
G1 X129.101 Y142.616 E64.99835
G1 X128.983 Y142.971 E65.13714
G1 X128.793 Y143.292 E65.27553
G1 X128.628 Y143.482 E65.36889
G1 X128.423 Y143.687 E65.47644
G1 X128.133 Y143.922 E65.61493
G1 X127.799 Y144.089 E65.75347
G1 X127.437 Y144.182 E65.89213
G1 X127.186 Y144.2 E65.98549
G1 X126.165 Y144.2 E66.36428
G1 X125.794 Y144.16 E66.50272
G1 X125.439 Y144.042 E66.64151
G1 X125.117 Y143.852 E66.78022
G1 X124.928 Y143.687 E66.8733
G1 X124.723 Y143.482 E66.98086
G1 X124.488 Y143.192 E67.11934
G1 X124.321 Y142.858 E67.25788
G1 X124.228 Y142.496 E67.39654
G1 X124.21 Y142.245 E67.4899
G1 X124.21 Y140.164 E68.26195
G1 X103.927 Y118.13 E79.37275
G1 X97.593 Y124.463 E82.69577
G1 X97.302 Y124.697 E82.8343
G1 X96.968 Y124.864 E82.97284
G1 X96.606 Y124.957 E83.11151
G1 X96.356 Y124.975 E83.2045
G1 X96.066 Y124.975 E83.31209
G1 X95.695 Y124.935 E83.45052
G1 X95.34 Y124.817 E83.58931
G1 X95.018 Y124.627 E83.72802
G1 X94.829 Y124.462 E83.8211
G1 X93.069 Y122.702 E84.74453
G1 X92.834 Y122.412 E84.88301
G1 X92.667 Y122.078 E85.02155
G1 X92.574 Y121.716 E85.16021
G1 X92.556 Y121.465 E85.25357
G1 X92.556 Y121.175 E85.36116
G1 X92.596 Y120.804 E85.4996
G1 X92.714 Y120.449 E85.63839
G1 X92.904 Y120.127 E85.7771
G1 X93.069 Y119.938 E85.87018
G1 X124.21 Y88.798 E102.20877
G1 X124.21 Y85.2 E103.54362
G1 X112.635 Y85.2 E107.83795
G1 X112.264 Y85.16 E107.97639
G1 X111.909 Y85.042 E108.11518
G1 X111.587 Y84.852 E108.25389
G1 X111.398 Y84.687 E108.34697
G1 X111.193 Y84.482 E108.45452
G1 X111.001 Y84.246 E108.5674
G1 X110.921 Y84.453 E108.64973
G1 X110.715 Y84.765 E108.78844
G1 X110.447 Y85.026 E108.92722
G1 X110.131 Y85.224 E109.06557
G1 X109.779 Y85.351 E109.2044
G1 X109.366 Y85.4 E109.3587
G1 X108.438 Y85.4 E109.70299
G1 X108.281 Y85.581 E109.79188
G1 X107.982 Y85.805 E109.93049
G1 X107.642 Y85.961 E110.06927
G1 X107.277 Y86.041 E110.2079
G1 X107.088 Y86.051 E110.27812
G1 X104.731 Y86.051 E111.15257
G1 X104.36 Y86.011 E111.291
G1 X104.005 Y85.893 E111.42979
G1 X103.683 Y85.703 E111.5685
G1 X103.41 Y85.449 E111.70684
G1 X103.376 Y85.4 E111.72897
G1 X102.297 Y85.4 E112.12928
G1 X101.926 Y85.36 E112.26772
G1 X101.571 Y85.242 E112.40651
G1 X101.249 Y85.052 E112.54522
G1 X101.06 Y84.887 E112.6383
G1 X100.693 Y84.52 E112.83085
G1 X100.458 Y84.23 E112.96933
G1 X100.291 Y83.896 E113.10787
G1 X100.198 Y83.534 E113.24654
G1 X100.18 Y83.284 E113.33953
G1 X100.179 Y80.673 E114.30821
G1 X100.219 Y80.301 E114.44702
G1 X100.336 Y79.947 E114.58534
G1 X100.527 Y79.625 E114.72423
G0 F5400 X101.035 Y80.121
G1 F1800 X101.187 Y79.93 E114.8148
G1 X101.509 Y79.608 E114.98374
G1 X101.739 Y79.433 E115.09096
G1 X102.009 Y79.328 E115.19844
G1 X102.251 Y79.3 E115.28882
G1 X103.631 Y79.3 E115.8008
G1 X103.696 Y79.257 E115.82971
G1 X103.822 Y79.045 E115.92121
G1 X104.031 Y78.846 E116.02827
G1 X104.287 Y78.711 E116.13565
G1 X104.643 Y78.649 E116.26971
G1 X107.138 Y78.65 E117.19536
G1 X107.425 Y78.69 E117.30286
G1 X107.689 Y78.806 E117.40985
G1 X107.912 Y78.991 E117.51734
G1 X108.08 Y79.255 E117.63344
G1 X108.148 Y79.3 E117.66369
G1 X109.369 Y79.301 E118.11668
G1 X109.655 Y79.341 E118.22382
G1 X109.92 Y79.458 E118.33129
G1 X110.142 Y79.642 E118.43826
G1 X110.306 Y79.88 E118.54549
G1 X110.399 Y80.154 E118.65284
G1 X110.404 Y80.522 E118.78938
G1 X110.304 Y81.127 E119.01688
G1 X110.301 Y82.872 E119.66428
G1 X110.402 Y83.478 E119.89221
G1 X110.409 Y83.767 E119.99946
G1 X110.338 Y84.047 E120.10663
G1 X110.193 Y84.297 E120.21385
G1 X109.985 Y84.498 E120.32116
G1 X109.73 Y84.635 E120.42855
G1 X109.366 Y84.7 E120.56573
G1 X108.097 Y84.7 E121.03653
G1 X108.036 Y84.741 E121.0638
G1 X107.912 Y84.952 E121.1546
G1 X107.703 Y85.152 E121.26192
G1 X107.447 Y85.288 E121.36947
G1 X107.088 Y85.351 E121.50469
G1 X104.731 Y85.351 E122.37914
G1 X104.445 Y85.311 E122.48628
G1 X104.18 Y85.195 E122.5936
G1 X103.957 Y85.011 E122.70086
G1 X103.786 Y84.743 E122.8188
G1 X103.722 Y84.7 E122.84741
G1 X102.297 Y84.7 E123.37608
G1 X102.011 Y84.66 E123.48322
G1 X101.746 Y84.544 E123.59054
G1 X101.555 Y84.392 E123.6811
G1 X101.188 Y84.025 E123.87366
G1 X101.013 Y83.795 E123.98088
G1 X100.908 Y83.525 E124.08836
G1 X100.88 Y83.283 E124.17874
G1 X100.879 Y80.672 E125.14742
G1 X100.919 Y80.386 E125.25456
G1 X101.035 Y80.121 E125.36188
G0 F5400 X101.682 Y80.425
G1 F1800 X102.004 Y80.103 E125.53083
G1 X102.146 Y80.016 E125.59261
G1 X102.251 Y80 E125.63201
G1 X103.842 Y80 E126.22227
G1 X104.251 Y79.728 E126.40451
G1 X104.32 Y79.564 E126.47051
G1 X104.419 Y79.43 E126.53233
G1 X104.643 Y79.349 E126.6207
G1 X107.138 Y79.35 E127.54634
G1 X107.3 Y79.389 E127.60816
G1 X107.461 Y79.566 E127.69693
G1 X107.529 Y79.73 E127.7628
G1 X107.935 Y80 E127.94369
G1 X109.368 Y80.001 E128.47533
G1 X109.53 Y80.041 E128.53724
G1 X109.655 Y80.15 E128.59877
G1 X109.715 Y80.305 E128.66043
G1 X109.713 Y80.408 E128.69865
G1 X109.604 Y81.067 E128.94646
G1 X109.601 Y82.932 E129.63838
G1 X109.711 Y83.593 E129.88698
G1 X109.699 Y83.758 E129.94836
G1 X109.611 Y83.899 E130.01002
G1 X109.469 Y83.985 E130.07161
G1 X109.366 Y84 E130.11023
G1 X107.885 Y84 E130.65968
G1 X107.479 Y84.27 E130.84057
G1 X107.411 Y84.435 E130.90678
G1 X107.313 Y84.569 E130.96837
G1 X107.088 Y84.651 E131.05722
G1 X104.731 Y84.651 E131.93167
G1 X104.57 Y84.612 E131.99312
G1 X104.408 Y84.435 E132.08214
G1 X104.34 Y84.27 E132.14835
G1 X103.934 Y84 E132.32925
G1 X102.297 Y84 E132.93657
G1 X102.136 Y83.961 E132.99803
G1 X102.05 Y83.897 E133.0378
G1 X101.683 Y83.53 E133.23036
G1 X101.596 Y83.388 E133.29214
G1 X101.58 Y83.283 E133.33155
G1 X101.579 Y80.672 E134.30023
G1 X101.618 Y80.511 E134.36169
G1 X101.682 Y80.425 E134.40146
G0 F5400 X111.379 Y80.755
G1 F1800 X111.419 Y80.469 E134.5086
G1 X111.535 Y80.204 E134.61592
G1 X111.687 Y80.013 E134.70648
G1 X111.892 Y79.808 E134.81404
G1 X112.122 Y79.633 E134.92126
G1 X112.392 Y79.528 E135.02874
G1 X112.634 Y79.5 E135.11912
G1 X127.185 Y79.5 E140.51754
G1 X127.471 Y79.54 E140.62468
G1 X127.736 Y79.656 E140.732
G1 X127.927 Y79.808 E140.82256
G1 X128.132 Y80.013 E140.93012
G1 X128.307 Y80.243 E141.03734
G1 X128.412 Y80.513 E141.14482
G1 X128.44 Y80.755 E141.2352
G1 X128.441 Y113.245 E153.28899
G1 X128.401 Y113.531 E153.39613
G1 X128.285 Y113.796 E153.50345
G1 X128.133 Y113.987 E153.59401
G1 X127.928 Y114.192 E153.70157
G1 X127.698 Y114.367 E153.80879
G1 X127.428 Y114.472 E153.91627
G1 X127.186 Y114.5 E154.00665
G1 X126.165 Y114.5 E154.38544
G1 X125.879 Y114.46 E154.49258
G1 X125.614 Y114.344 E154.5999
G1 X125.423 Y114.192 E154.69046
G1 X125.218 Y113.987 E154.79802
G1 X125.043 Y113.757 E154.90524
G1 X124.938 Y113.487 E155.01272
G1 X124.91 Y113.245 E155.1031
G1 X124.91 Y105.855 E157.84479
G1 X124.85 Y105.143 E158.10988
G1 X124.682 Y104.49 E158.36003
G1 X124.409 Y103.882 E158.60729
G1 X124.034 Y103.319 E158.85826
G1 X123.577 Y102.838 E159.10441
G1 X123.034 Y102.429 E159.35662
G1 X122.441 Y102.121 E159.60453
G1 X121.803 Y101.919 E159.8528
G1 X121.132 Y101.824 E160.10423
G1 X120.461 Y101.843 E160.35327
G1 X119.801 Y101.974 E160.60291
G1 X119.172 Y102.214 E160.85267
G1 X118.598 Y102.553 E161.09999
G1 X118.054 Y103.011 E161.36382
G1 X107.486 Y113.581 E166.90909
G1 X124.91 Y132.508 E176.45344
G1 X124.91 Y117.755 E181.9268
G1 X124.95 Y117.469 E182.03394
G1 X125.066 Y117.204 E182.14126
G1 X125.218 Y117.013 E182.23182
G1 X125.423 Y116.808 E182.33938
G1 X125.653 Y116.633 E182.4466
G1 X125.923 Y116.528 E182.55408
G1 X126.165 Y116.5 E182.64446
G1 X127.185 Y116.5 E183.02288
G1 X127.471 Y116.54 E183.13002
G1 X127.736 Y116.656 E183.23734
G1 X127.927 Y116.808 E183.3279
G1 X128.132 Y117.013 E183.43546
G1 X128.307 Y117.243 E183.54268
G1 X128.412 Y117.513 E183.65016
G1 X128.44 Y117.755 E183.74054
G1 X128.441 Y142.245 E192.82633
G1 X128.401 Y142.531 E192.93347
G1 X128.285 Y142.796 E193.04079
G1 X128.133 Y142.987 E193.13135
G1 X127.928 Y143.192 E193.23891
G1 X127.698 Y143.367 E193.34613
G1 X127.428 Y143.472 E193.45361
G1 X127.186 Y143.5 E193.54399
G1 X126.165 Y143.5 E193.92278
G1 X125.879 Y143.46 E194.02992
G1 X125.614 Y143.344 E194.13724
G1 X125.423 Y143.192 E194.22781
G1 X125.218 Y142.987 E194.33536
G1 X125.043 Y142.757 E194.44259
G1 X124.938 Y142.487 E194.55006
G1 X124.91 Y142.245 E194.64044
G1 X124.91 Y139.891 E195.51378
G1 X103.947 Y117.119 E206.99688
G1 X97.098 Y123.968 E210.59037
G1 X96.868 Y124.142 E210.69737
G1 X96.598 Y124.247 E210.80484
G1 X96.356 Y124.275 E210.89522
G1 X96.066 Y124.275 E211.00281
G1 X95.78 Y124.235 E211.10995
G1 X95.515 Y124.119 E211.21727
G1 X95.324 Y123.967 E211.30784
G1 X93.564 Y122.207 E212.23126
G1 X93.389 Y121.977 E212.33848
G1 X93.284 Y121.707 E212.44596
G1 X93.256 Y121.465 E212.53634
G1 X93.256 Y121.175 E212.64393
G1 X93.296 Y120.889 E212.75107
G1 X93.412 Y120.624 E212.85839
G1 X93.564 Y120.433 E212.94895
G1 X124.91 Y89.088 E229.3951
G1 X124.91 Y84.5 E231.09725
G1 X112.635 Y84.5 E235.65127
G1 X112.349 Y84.46 E235.75841
G1 X112.084 Y84.344 E235.86573
G1 X111.893 Y84.192 E235.95629
G1 X111.688 Y83.987 E236.06385
G1 X111.513 Y83.757 E236.17107
G1 X111.408 Y83.487 E236.27855
G1 X111.38 Y83.245 E236.36893
G1 X111.379 Y80.755 E237.29272
G0 F5400 X112.079 Y80.755
G1 F1800 X112.118 Y80.594 E237.35418
G1 X112.182 Y80.508 E237.39395
G1 X112.387 Y80.303 E237.50151
G1 X112.529 Y80.216 E237.56329
G1 X112.634 Y80.2 E237.6027
G1 X127.185 Y80.2 E243.00112
G1 X127.346 Y80.239 E243.06258
G1 X127.432 Y80.303 E243.10235
G1 X127.637 Y80.508 E243.20991
G1 X127.724 Y80.65 E243.27169
G1 X127.74 Y80.755 E243.31109
G1 X127.741 Y113.245 E255.36488
G1 X127.702 Y113.406 E255.42634
G1 X127.638 Y113.492 E255.46611
G1 X127.433 Y113.697 E255.57367
G1 X127.291 Y113.784 E255.63546
G1 X127.186 Y113.8 E255.67486
G1 X126.165 Y113.8 E256.05365
G1 X126.004 Y113.761 E256.11511
G1 X125.918 Y113.697 E256.15488
G1 X125.713 Y113.492 E256.26244
G1 X125.626 Y113.35 E256.32422
G1 X125.61 Y113.245 E256.36363
G1 X125.61 Y105.831 E259.11422
G1 X125.541 Y105.023 E259.41508
G1 X125.344 Y104.255 E259.70923
G1 X125.024 Y103.543 E259.99884
G1 X124.586 Y102.885 E260.29209
G1 X124.044 Y102.313 E260.58444
G1 X123.41 Y101.835 E260.87902
G1 X122.71 Y101.472 E261.17156
G1 X121.957 Y101.234 E261.46454
G1 X121.168 Y101.123 E261.76015
G1 X120.381 Y101.144 E262.05223
G1 X119.61 Y101.298 E262.34392
G1 X118.864 Y101.582 E262.64006
G1 X118.194 Y101.979 E262.92899
G1 X117.578 Y102.497 E263.22759
G1 X106.516 Y113.561 E269.03205
G1 X125.61 Y134.302 E279.49116
G1 X125.61 Y117.755 E285.63009
G1 X125.649 Y117.594 E285.69155
G1 X125.713 Y117.508 E285.73132
G1 X125.918 Y117.303 E285.83888
G1 X126.06 Y117.216 E285.90067
G1 X126.165 Y117.2 E285.94007
G1 X127.185 Y117.2 E286.31849
G1 X127.346 Y117.239 E286.37995
G1 X127.432 Y117.303 E286.41972
G1 X127.637 Y117.508 E286.52728
G1 X127.724 Y117.65 E286.58906
G1 X127.74 Y117.755 E286.62847
G1 X127.741 Y142.245 E295.71426
G1 X127.702 Y142.406 E295.77572
G1 X127.638 Y142.492 E295.81549
G1 X127.433 Y142.697 E295.92304
G1 X127.291 Y142.784 E295.98483
G1 X127.186 Y142.8 E296.02423
G1 X126.165 Y142.8 E296.40302
G1 X126.004 Y142.761 E296.46448
G1 X125.918 Y142.697 E296.50425
G1 X125.713 Y142.492 E296.61181
G1 X125.626 Y142.35 E296.6736
G1 X125.61 Y142.245 E296.713
G1 X125.61 Y139.618 E297.68762
G1 X103.968 Y116.109 E309.5425
G1 X96.603 Y123.473 E313.40646
G1 X96.461 Y123.559 E313.46805
G1 X96.356 Y123.575 E313.50745
G1 X96.066 Y123.575 E313.61504
G1 X95.905 Y123.536 E313.6765
G1 X95.819 Y123.472 E313.71627
G1 X94.059 Y121.712 E314.6397
G1 X93.972 Y121.57 E314.70148
G1 X93.956 Y121.465 E314.74088
G1 X93.956 Y121.175 E314.84847
G1 X93.995 Y121.014 E314.90993
G1 X94.059 Y120.928 E314.9497
G1 X125.61 Y89.378 E331.50341
G1 X125.61 Y83.8 E333.57284
G1 X112.635 Y83.8 E338.38657
G1 X112.474 Y83.761 E338.44803
G1 X112.388 Y83.697 E338.4878
G1 X112.183 Y83.492 E338.59536
G1 X112.096 Y83.35 E338.65714
G1 X112.08 Y83.245 E338.69655
G1 X112.079 Y80.755 E339.62034
G10
G0 F5400 X111.547 Y80.756
G0 X111.55 Y80.391
G0 X112.27 Y79.671
G0 X127.549 Y79.671
G0 X128.269 Y80.391
G0 X129.297 Y97.944
G11
G1 F1800 X129.481 Y97.721 E339.7276
G1 X129.719 Y97.557 E339.83483
G1 X129.993 Y97.464 E339.94218
G1 X130.282 Y97.449 E340.04954
G1 X130.585 Y97.522 E340.16517
G1 X131.847 Y98.033 E340.6703
G1 X132.098 Y98.177 E340.77765
