;FLAVOR:UltiGCode
;TIME:1559
;MATERIAL:5819
;MATERIAL2:0

;Layer count: 105
;LAYER:0
M107
G0 F9000 X108.238 Y105.356 Z0.300
;TYPE:SKIRT
G1 F1200 X98.944 Y114.650 E3.15449
G1 X112.074 Y128.913 E7.80721
G1 X112.074 Y106.943 E13.08001
G1 X112.034 Y106.462 E13.19585
G1 X111.942 Y106.108 E13.28363
G1 X111.791 Y105.769 E13.37270
G1 X111.588 Y105.466 E13.46023
G1 X111.335 Y105.198 E13.54868
G1 X111.041 Y104.977 E13.63695
G1 X110.711 Y104.806 E13.72615
G1 X110.361 Y104.695 E13.81428
G1 X110.000 Y104.644 E13.90178
G1 X109.628 Y104.654 E13.99109
G1 X109.271 Y104.725 E14.07845
G1 X108.921 Y104.859 E14.16839
G1 X108.608 Y105.043 E14.25553
G1 X108.238 Y105.356 E14.37184
G0 F9000 X107.689 Y104.773
G1 F1200 X97.835 Y114.626 E17.71623
G1 X112.874 Y130.962 E23.04530
G1 X112.874 Y106.913 E28.81706
G1 X112.825 Y106.332 E28.95699
G1 X112.698 Y105.839 E29.07917
G1 X112.494 Y105.382 E29.19928
G1 X112.214 Y104.964 E29.32003
G1 X111.871 Y104.600 E29.44007
G1 X111.467 Y104.296 E29.56141
G1 X111.021 Y104.066 E29.68185
G1 X110.537 Y103.912 E29.80374
G1 X110.042 Y103.842 E29.92373
G1 X109.544 Y103.856 E30.04329
G1 X109.043 Y103.956 E30.16591
G1 X108.576 Y104.133 E30.28577
G1 X108.143 Y104.389 E30.40649
G1 X107.689 Y104.773 E30.54920
G0 F9000 X107.153 Y104.178
G1 F1200 X96.727 Y114.603 E34.08773
G1 X113.674 Y133.011 E40.09279
G1 X113.674 Y117.317 E43.85935
G1 X117.132 Y117.317 E44.68927
G1 X117.133 Y144.717 E51.26527
G1 X113.674 Y144.717 E52.09543
G1 X113.674 Y140.986 E52.99087
G1 X92.905 Y118.426 E60.35033
G1 X85.176 Y126.155 E62.97364
G1 X81.358 Y122.336 E64.26968
G1 X113.674 Y90.019 E75.23826
G1 X113.674 Y85.717 E76.27074
G1 X100.617 Y85.717 E79.40442
G1 X100.616 Y80.317 E80.70042
G1 X117.132 Y80.317 E84.66426
G1 X117.133 Y115.717 E93.16026
G1 X113.674 Y115.717 E93.99042
G1 X113.674 Y106.882 E96.11082
G1 X113.616 Y106.194 E96.27653
G1 X113.456 Y105.574 E96.43020
G1 X113.199 Y104.998 E96.58158
G1 X112.842 Y104.464 E96.73574
G1 X112.403 Y104.000 E96.88904
G1 X111.892 Y103.615 E97.04260
G1 X111.325 Y103.323 E97.19566
G1 X110.721 Y103.130 E97.34784
G1 X110.090 Y103.041 E97.50078
G1 X109.447 Y103.059 E97.65516
G1 X108.820 Y103.184 E97.80860
G1 X108.232 Y103.408 E97.95962
G1 X107.675 Y103.736 E98.11475
G1 X107.153 Y104.178 E98.27891
G0 F9000 X106.616 Y103.584
G1 F1200 X95.618 Y114.581 E102.01159
G1 X114.474 Y135.062 E108.69299
G1 X114.474 Y118.117 E112.75979
G1 X116.332 Y118.117 E113.20571
G1 X116.333 Y143.917 E119.39771
G1 X114.474 Y143.917 E119.84387
G1 X114.474 Y140.673 E120.62243
G1 X92.929 Y117.270 E128.25687
G1 X85.176 Y125.024 E130.88850
G1 X82.489 Y122.336 E131.80067
G1 X114.474 Y90.351 E142.65674
G1 X114.474 Y84.917 E143.96090
G1 X101.417 Y84.917 E147.09458
G1 X101.416 Y81.117 E148.00658
G1 X116.332 Y81.117 E151.58642
G1 X116.333 Y114.917 E159.69842
G1 X114.474 Y114.917 E160.14458
G1 X114.474 Y106.851 E162.08042
G1 X114.408 Y106.056 E162.27187
G1 X114.215 Y105.312 E162.45634
G1 X113.901 Y104.609 E162.64113
G1 X113.471 Y103.964 E162.82717
G1 X112.939 Y103.403 E163.01273
G1 X112.318 Y102.935 E163.19935
G1 X111.634 Y102.581 E163.38419
G1 X110.899 Y102.347 E163.56932
G1 X110.134 Y102.239 E163.75474
G1 X109.357 Y102.261 E163.94129
G1 X108.603 Y102.411 E164.12580
G1 X107.880 Y102.686 E164.31145
G1 X107.209 Y103.082 E164.49844
G1 X106.616 Y103.584 E164.68491
G0 F9000 X112.874 Y89.689
G1 F1200 X112.874 Y86.517 E165.44619
G1 X99.817 Y86.517 E168.57987
G1 X99.816 Y79.517 E170.25987
G1 X117.932 Y79.517 E174.60771
G1 X117.933 Y116.517 E183.48771
G1 X117.932 Y116.517 E183.48795
G1 X117.933 Y145.517 E190.44795
G1 X112.874 Y145.517 E191.66211
G1 X112.874 Y141.297 E192.67491
G1 X92.881 Y119.580 E199.75937
G1 X85.176 Y127.287 E202.37488
G1 X80.227 Y122.336 E204.05496
G1 X112.874 Y89.689 E215.13572
G0 F9000 X112.074 Y89.357
G1 F1200 X112.074 Y87.317 E215.62532
G1 X99.017 Y87.317 E218.75900
G1 X99.017 Y83.617 E219.64700
G1 X99.015 Y78.717 E220.82300
G1 X118.732 Y78.717 E225.55508
G1 X118.732 Y82.417 E226.44308
G1 X118.733 Y84.516 E226.94684
G1 X118.733 Y117.317 E234.81908
G1 X118.732 Y117.317 E234.81932
G1 X118.733 Y146.317 E241.77932
G1 X112.074 Y146.317 E243.37748
G1 X112.074 Y141.609 E244.50740
G1 X92.858 Y120.735 E251.31672
G1 X85.176 Y128.418 E253.92424
G1 X79.096 Y122.336 E255.98820
G1 X112.074 Y89.357 E267.18148
G10
G0 F9000 X115.274 Y90.683
;TYPE:WALL-OUTER
G11
G1 F1200 X115.274 Y84.117 E268.75732
G1 X102.217 Y84.117 E271.89100
G1 X102.216 Y81.917 E272.41900
G1 X115.532 Y81.917 E275.61484
G1 X115.533 Y114.117 E283.34284
G1 X115.274 Y114.117 E283.40500
G1 X115.274 Y106.813 E285.15796
G1 X115.200 Y105.926 E285.37158
G1 X114.973 Y105.046 E285.58969
G1 X114.602 Y104.218 E285.80745
G1 X114.098 Y103.463 E286.02531
G1 X113.473 Y102.803 E286.24346
G1 X112.749 Y102.257 E286.46110
G1 X111.942 Y101.840 E286.67911
G1 X111.076 Y101.565 E286.89717
G1 X110.178 Y101.437 E287.11487
G1 X109.270 Y101.463 E287.33288
G1 X108.379 Y101.640 E287.55090
G1 X107.531 Y101.963 E287.76868
G1 X106.749 Y102.425 E287.98667
G1 X106.068 Y103.000 E288.20058
G1 X94.510 Y114.558 E292.12349
G1 X114.765 Y136.559 E299.30069
G1 X115.274 Y136.360 E299.43186
G1 X115.274 Y118.917 E303.61818
G1 X115.532 Y118.917 E303.68010
G1 X115.533 Y143.117 E309.48810
G1 X115.274 Y143.117 E309.55026
G1 X115.274 Y140.361 E310.21170
G1 X92.953 Y116.114 E318.12131
G1 X85.176 Y123.892 E320.76108
G1 X83.621 Y122.336 E321.28903
G1 X115.274 Y90.683 E332.03242
G0 F9000 X114.631 Y91.438
;TYPE:SKIN
G1 F900 X115.452 Y92.259 E332.31107
G0 F9000 X115.452 Y93.390
G1 F900 X114.066 Y92.004 E332.78150
G0 F9000 X113.500 Y92.570
G1 F900 X115.452 Y94.521 E333.44386
G0 F9000 X115.452 Y95.653
G1 F900 X112.934 Y93.135 E334.29850
G0 F9000 X112.369 Y93.701
G1 F900 X115.452 Y96.784 E335.34490
G0 F9000 X115.452 Y97.915
G1 F900 X111.803 Y94.267 E336.58324
G0 F9000 X111.237 Y94.832
G1 F900 X115.452 Y99.047 E338.01386
G0 F9000 X115.452 Y100.178
G1 F900 X110.672 Y95.398 E339.63625
G0 F9000 X110.106 Y95.964
G1 F900 X115.452 Y101.310 E341.45074
G0 F9000 X115.452 Y102.441
G1 F900 X109.540 Y96.529 E343.45734
G0 F9000 X108.975 Y97.095
G1 F900 X115.452 Y103.572 E345.65570
G0 F9000 X115.434 Y104.686
G1 F900 X114.133 Y103.385 E346.09728
G0 F9000 X113.385 Y102.637
G1 F900 X108.409 Y97.661 E347.78619
G0 F9000 X107.843 Y98.227
G1 F900 X111.107 Y101.491 E348.89403
G0 F9000 X109.851 Y101.365
G1 F900 X107.277 Y98.792 E349.76750
G0 F9000 X106.712 Y99.358
G1 F900 X108.823 Y101.469 E350.48400
G0 F9000 X107.942 Y101.720
G1 F900 X106.146 Y99.924 E351.09358
G10
G0 F9000 X106.099 Y84.037
G11
G1 F900 X104.058 Y81.996 E351.78632
G0 F9000 X102.927 Y81.996
G1 F900 X104.967 Y84.037 E352.47889
G0 F9000 X103.836 Y84.037
G1 F900 X102.295 Y82.496 E353.00192
G0 F9000 X102.295 Y83.628
G1 F900 X102.705 Y84.037 E353.14091
G0 F9000 X102.705 Y83.617
G0 X105.189 Y82.417
G0 X105.189 Y81.996
G1 F900 X107.230 Y84.037 E353.83365
G0 F9000 X108.361 Y84.037
G1 F900 X106.321 Y81.996 E354.52622
G0 F9000 X107.452 Y81.996
G1 F900 X109.493 Y84.037 E355.21896
G0 F9000 X110.624 Y84.037
G1 F900 X108.584 Y81.996 E355.91153
G0 F9000 X109.715 Y81.996
G1 F900 X111.756 Y84.037 E356.60426
G0 F9000 X112.887 Y84.037
G1 F900 X110.846 Y81.996 E357.29700
G0 F9000 X111.978 Y81.996
G1 F900 X114.018 Y84.037 E357.98957
G0 F9000 X115.150 Y84.037
G1 F900 X113.109 Y81.996 E358.68231
G0 F9000 X114.240 Y81.996
G1 F900 X115.451 Y83.207 E359.09334
G10
G0 F9000 X105.580 Y100.489
G11
G1 F900 X107.171 Y102.080 E359.63334
G0 F9000 X106.493 Y102.534
G1 F900 X105.015 Y101.055 E360.13516
G0 F9000 X104.449 Y101.621
G1 F900 X105.891 Y103.062 E360.62442
G0 F9000 X105.325 Y103.628
G1 F900 X103.883 Y102.186 E361.11385
G0 F9000 X103.318 Y102.752
G1 F900 X104.759 Y104.194 E361.60311
G0 F9000 X104.194 Y104.759
G1 F900 X102.752 Y103.318 E362.09237
G0 F9000 X102.186 Y103.883
G1 F900 X103.628 Y105.325 E362.58181
G0 F9000 X103.062 Y105.891
G1 F900 X101.621 Y104.449 E363.07107
G0 F9000 X101.055 Y105.015
G1 F900 X102.497 Y106.457 E363.56050
G0 F9000 X101.931 Y107.022
G1 F900 X100.489 Y105.580 E364.04993
G0 F9000 X99.924 Y106.146
G1 F900 X101.365 Y107.588 E364.53919
G0 F9000 X100.800 Y108.154
G1 F900 X99.358 Y106.712 E365.02862
G0 F9000 X98.792 Y107.277
G1 F900 X100.234 Y108.719 E365.51805
G0 F9000 X99.668 Y109.285
G1 F900 X98.227 Y107.843 E366.00731
G0 F9000 X97.661 Y108.409
G1 F900 X99.103 Y109.851 E366.49674
G0 F9000 X98.537 Y110.416
G1 F900 X97.095 Y108.975 E366.98601
G0 F9000 X96.529 Y109.540
G1 F900 X97.971 Y110.982 E367.47544
G0 F9000 X97.406 Y111.548
G1 F900 X95.964 Y110.106 E367.96487
G0 F9000 X95.398 Y110.672
G1 F900 X96.840 Y112.113 E368.45413
G0 F9000 X96.274 Y112.679
G1 F900 X94.832 Y111.237 E368.94356
G0 F9000 X94.267 Y111.803
G1 F900 X95.709 Y113.245 E369.43299
G0 F9000 X95.143 Y113.810
G1 F900 X93.701 Y112.369 E369.92225
G0 F9000 X93.135 Y112.934
G1 F900 X94.577 Y114.376 E370.41168
G0 F9000 X94.281 Y114.081
G0 X92.865 Y113.797
G0 X92.570 Y113.500
G1 F900 X103.373 Y124.303 E374.07834
G0 F9000 X103.064 Y124.586
G0 X108.127 Y131.860
G0 X107.818 Y132.143
G1 F900 X115.452 Y139.777 E376.66941
G0 F9000 X115.452 Y138.645
G1 F900 X94.708 Y117.901 E383.71016
G0 F9000 X95.016 Y117.619
G0 X92.969 Y115.337
G0 X92.585 Y115.777
G0 X92.880 Y116.073
G1 F900 X91.438 Y114.631 E384.19959
G0 F9000 X90.873 Y115.197
G1 F900 X92.314 Y116.639 E384.68885
G0 F9000 X91.749 Y117.205
G1 F900 X90.307 Y115.763 E385.17828
G0 F9000 X89.741 Y116.328
G1 F900 X91.183 Y117.770 E385.66771
G0 F9000 X90.617 Y118.336
G1 F900 X89.176 Y116.894 E386.15697
G0 F9000 X88.610 Y117.460
G1 F900 X90.052 Y118.902 E386.64640
G0 F9000 X89.486 Y119.467
G1 F900 X88.044 Y118.026 E387.13566
G0 F9000 X87.479 Y118.591
G1 F900 X88.920 Y120.033 E387.62493
G0 F9000 X88.355 Y120.599
G1 F900 X86.913 Y119.157 E388.11436
G0 F9000 X86.347 Y119.723
G1 F900 X87.789 Y121.164 E388.60362
G0 F9000 X87.223 Y121.730
G1 F900 X85.781 Y120.288 E389.09305
G0 F9000 X85.216 Y120.854
G1 F900 X86.658 Y122.296 E389.58248
G0 F9000 X86.092 Y122.861
G1 F900 X84.650 Y121.420 E390.07174
G0 F9000 X84.084 Y121.985
G1 F900 X85.526 Y123.427 E390.56117
G0 F9000 X85.231 Y123.131
G0 X92.300 Y114.363
G0 X92.004 Y114.066
G1 F900 X115.452 Y137.514 E398.51969
;LAYER:1
M106 S255
G0 F9000 X115.274 Y136.360 Z0.500
;TYPE:WALL-OUTER
G1 F1320 X115.274 Y118.917 E401.31057
G1 X115.956 Y118.917 E401.41969
G1 X115.957 Y143.117 E405.29169
G1 X115.274 Y143.117 E405.40097
G1 X115.274 Y140.361 E405.84193
G1 X92.953 Y116.114 E411.11500
G1 X85.176 Y123.892 E412.87485
G1 X83.621 Y122.336 E413.22682
G1 X115.274 Y90.683 E420.38907
G1 X115.274 Y84.117 E421.43963
G1 X101.793 Y84.117 E423.59659
G1 X101.792 Y81.917 E423.94859
G1 X115.956 Y81.917 E426.21483
G1 X115.957 Y114.117 E431.36683
G1 X115.274 Y114.117 E431.47611
G1 X115.274 Y106.813 E432.64475
G1 X115.200 Y105.926 E432.78717
G1 X114.973 Y105.046 E432.93257
G1 X114.602 Y104.218 E433.07775
G1 X114.098 Y103.463 E433.22299
G1 X113.473 Y102.803 E433.36842
G1 X112.749 Y102.257 E433.51351
G1 X111.942 Y101.840 E433.65885
G1 X111.076 Y101.565 E433.80423
G1 X110.178 Y101.437 E433.94936
G1 X109.270 Y101.463 E434.09470
G1 X108.379 Y101.640 E434.24005
G1 X107.531 Y101.963 E434.38524
G1 X106.749 Y102.425 E434.53056
G1 X106.068 Y103.000 E434.67317
G1 X94.510 Y114.558 E437.28844
G1 X114.765 Y136.559 E442.07324
G1 X115.274 Y136.360 E442.16069
G0 F9000 X115.293 Y136.436
;TYPE:SKIN
G1 F900 X113.459 Y138.270 E442.57567
G0 F9000 X114.001 Y138.859
G1 F900 X115.877 Y136.984 E443.00005
G0 F9000 X115.877 Y138.115
G1 F900 X114.544 Y139.448 E443.30167
G0 F9000 X115.086 Y140.037
G1 F900 X115.877 Y139.247 E443.48054
G0 F9000 X115.457 Y139.247
G0 X113.225 Y137.399
G0 X112.917 Y137.681
G1 F900 X114.361 Y136.237 E443.80728
G0 F9000 X113.818 Y135.648
G1 F900 X112.374 Y137.092 E444.13402
G0 F9000 X111.833 Y136.502
G1 F900 X113.276 Y135.059 E444.46054
G0 F9000 X112.734 Y134.470
G1 F900 X111.290 Y135.913 E444.78716
G0 F9000 X110.748 Y135.324
G1 F900 X112.191 Y133.881 E445.11368
G0 F9000 X111.649 Y133.292
G1 F900 X110.206 Y134.735 E445.44019
G0 F9000 X109.663 Y134.146
G1 F900 X111.106 Y132.703 E445.76670
G0 F9000 X110.564 Y132.114
G1 F900 X109.121 Y133.557 E446.09322
G0 F9000 X108.579 Y132.968
G1 F900 X110.022 Y131.525 E446.41973
G0 F9000 X109.479 Y130.936
G1 F900 X108.036 Y132.379 E446.74624
G0 F9000 X107.494 Y131.790
G1 F900 X108.937 Y130.347 E447.07276
G0 F9000 X108.395 Y129.758
G1 F900 X106.952 Y131.201 E447.39927
G0 F9000 X106.409 Y130.612
G1 F900 X107.852 Y129.169 E447.72579
G0 F9000 X107.310 Y128.580
G1 F900 X105.868 Y130.022 E448.05207
G0 F9000 X105.325 Y129.433
G1 F900 X106.768 Y127.991 E448.37847
G0 F9000 X106.225 Y127.402
G1 F900 X104.783 Y128.844 E448.70476
G0 F9000 X104.240 Y128.255
G1 F900 X105.683 Y126.813 E449.03116
G0 F9000 X105.141 Y126.224
G1 F900 X103.698 Y127.666 E449.35756
G0 F9000 X103.156 Y127.077
G1 F900 X104.598 Y125.635 E449.68385
G0 F9000 X104.056 Y125.046
G1 F900 X102.613 Y126.488 E450.01025
G0 F9000 X102.071 Y125.899
G1 F900 X103.514 Y124.457 E450.33665
G0 F9000 X102.971 Y123.868
G1 F900 X101.529 Y125.310 E450.66294
G0 F9000 X100.986 Y124.721
G1 F900 X102.429 Y123.279 E450.98934
G0 F9000 X101.887 Y122.690
G1 F900 X100.444 Y124.132 E451.31574
G0 F9000 X99.902 Y123.542
G1 F900 X101.344 Y122.101 E451.64191
G0 F9000 X100.802 Y121.512
G1 F900 X99.360 Y122.953 E451.96809
G0 F9000 X98.818 Y122.364
G1 F900 X100.259 Y120.923 E452.29415
G0 F9000 X99.718 Y120.333
G1 F900 X98.275 Y121.775 E452.62055
G0 F9000 X97.733 Y121.186
G1 F900 X99.175 Y119.744 E452.94684
G0 F9000 X98.633 Y119.155
G1 F900 X97.191 Y120.597 E453.27312
G0 F9000 X96.648 Y120.008
G1 F900 X98.091 Y118.566 E453.59952
G0 F9000 X97.548 Y117.977
G1 F900 X96.106 Y119.419 E453.92581
G0 F9000 X95.564 Y118.830
G1 F900 X97.006 Y117.388 E454.25210
G0 F9000 X96.464 Y116.799
G1 F900 X95.021 Y118.241 E454.57850
G0 F9000 X94.480 Y117.651
G1 F900 X95.921 Y116.210 E454.90456
G0 F9000 X95.379 Y115.621
G1 F900 X93.937 Y117.062 E455.23073
G0 F9000 X93.395 Y116.473
G1 F900 X94.837 Y115.032 E455.55691
G0 F9000 X94.529 Y115.314
G0 X92.969 Y115.337
G0 X85.239 Y123.249
G0 X85.068 Y123.669
G1 F900 X115.875 Y92.862 E462.52774
G0 F9000 X115.875 Y91.731
G1 F900 X84.502 Y123.103 E469.62652
G0 F9000 X83.937 Y122.538
G1 F900 X115.767 Y90.707 E476.82894
G10
G0 F9000 X115.875 Y93.994
G11
G1 F900 X108.275 Y101.594 E478.54863
G0 F9000 X109.627 Y101.372
G1 F900 X115.875 Y95.125 E479.96227
G0 F9000 X115.875 Y96.257
G1 F900 X110.701 Y101.430 E481.13290
G0 F9000 X111.611 Y101.651
G1 F900 X115.875 Y97.388 E482.09762
G0 F9000 X115.875 Y98.519
G1 F900 X112.405 Y101.989 E482.88280
G0 F9000 X113.101 Y102.424
G1 F900 X115.875 Y99.651 E483.51037
G10
G0 F9000 X115.649 Y84.037
G11
G1 F900 X115.875 Y83.811 E483.56151
G0 F9000 X115.875 Y82.680
G1 F900 X114.518 Y84.037 E483.86856
G0 F9000 X113.386 Y84.037
G1 F900 X115.427 Y81.996 E484.33038
G0 F9000 X114.296 Y81.996
G1 F900 X112.255 Y84.037 E484.79221
G0 F9000 X111.123 Y84.037
G1 F900 X113.164 Y81.996 E485.25404
G0 F9000 X112.033 Y81.996
G1 F900 X109.992 Y84.037 E485.71586
G0 F9000 X108.861 Y84.037
G1 F900 X110.901 Y81.996 E486.17757
G0 F9000 X109.770 Y81.996
G1 F900 X107.729 Y84.037 E486.63940
G0 F9000 X106.598 Y84.037
G1 F900 X108.639 Y81.996 E487.10123
G0 F9000 X107.507 Y81.996
G1 F900 X105.467 Y84.037 E487.56294
G0 F9000 X104.335 Y84.037
G1 F900 X106.376 Y81.996 E488.02476
G0 F9000 X105.245 Y81.996
G1 F900 X103.204 Y84.037 E488.48659
G0 F9000 X102.072 Y84.037
G1 F900 X104.113 Y81.996 E488.94841
G0 F9000 X102.982 Y81.996
G1 F900 X101.872 Y83.106 E489.19958
G10
G0 F9000 X115.875 Y100.782
G11
G1 F900 X113.714 Y102.942 E489.68844
G0 F9000 X114.246 Y103.542
G1 F900 X115.875 Y101.913 E490.05704
G0 F9000 X115.875 Y103.045
G1 F900 X114.692 Y104.227 E490.32461
G0 F9000 X115.044 Y105.007
G1 F900 X115.875 Y104.741 E490.51256
G1 X115.277 Y105.905 E490.72194
;LAYER:2
G10
G0 F9000 X108.949 Y84.117 Z0.700
;TYPE:WALL-OUTER
G11
G1 F1500 X101.479 Y84.117 E491.91714
G1 X101.478 Y81.917 E492.26914
G1 X108.948 Y81.917 E493.46434
G1 X108.949 Y84.117 E493.81634
G0 F9000 X108.361 Y84.037
;TYPE:SKIN
G1 F900 X106.321 Y81.996 E494.27805
G0 F9000 X107.452 Y81.996
G1 F900 X108.868 Y83.412 E494.59845
G0 F9000 X108.867 Y82.280
